X: 21305
T: Kendal Ghyll
R: jig
M: 6/8
K: Dmixolydian
|:d2 e f2 g|fed cBA|d2 e f2 g|agf gfe|
d3 def|A3 AGF|G2 B A2 G|AFD D3:|
|:F3 A3|cBA cBA|G3 B3|dcB dcB|
F3 A3|cBA cBA|G2 B A2 G|AFD D3:|

